X: 3
P: Menuett fr\aan V\"or\aa, \"Osterbotten
S: Verner F\"orars
R: minuet
M: 3/4
L: 1/16
K: D
|: A2 | d2d2 cdcB A2A2   | dcde f2fe (f2d2) | defg a2a2 a2ef | g2fg e6 :|
|: e2 | a3a  a2a2 a2(ef) | g2g2 fgfe  d2d2  | fefg a2aa c2ee | e2e2 d6 :|
